src/xmb/flatui/core-shader-options.svg

<?xml version="1.0" encoding="UTF-8" standalone="no"?>

<svg
   xmlns:dc="http://purl.org/dc/elements/1.1/"
   xmlns:cc="http://creativecommons.org/ns#"
   xmlns:rdf="http://www.w3.org/1999/02/22-rdf-syntax-ns#"
   xmlns:svg="http://www.w3.org/2000/svg"
   xmlns="http://www.w3.org/2000/svg"
   xmlns:sodipodi="http://sodipodi.sourceforge.net/DTD/sodipodi-0.dtd"
   xmlns:inkscape="http://www.inkscape.org/namespaces/inkscape"
   version="1.1"
   id="Calque_1"
   x="0px"
   y="0px"
   width="64px"
   height="64px"
   viewBox="0 0 64 64"
   enable-background="new 0 0 64 64"
   xml:space="preserve"
   inkscape:version="0.92.3 (2405546, 2018-03-11)"
   sodipodi:docname="core-shader-options.svg"
   inkscape:export-filename="/home/kivutar/Bureau/retroarch-assets/xmb/monochrome/png/core-shader-options.png"
   inkscape:export-xdpi="90"
   inkscape:export-ydpi="90"><metadata
     id="metadata8"><rdf:RDF><cc:Work
         rdf:about=""><dc:format>image/svg+xml</dc:format><dc:type
           rdf:resource="http://purl.org/dc/dcmitype/StillImage" /><dc:title /></cc:Work></rdf:RDF></metadata><defs
     id="defs6" /><sodipodi:namedview
     pagecolor="#ffffff"
     bordercolor="#666666"
     borderopacity="1"
     objecttolerance="10"
     gridtolerance="10"
     guidetolerance="10"
     inkscape:pageopacity="0"
     inkscape:pageshadow="2"
     inkscape:window-width="1024"
     inkscape:window-height="705"
     id="namedview4"
     showgrid="false"
     inkscape:zoom="11.313709"
     inkscape:cx="32.487079"
     inkscape:cy="32.815987"
     inkscape:window-x="-8"
     inkscape:window-y="-8"
     inkscape:window-maximized="1"
     inkscape:current-layer="g4142"
     showguides="false"
     inkscape:snap-object-midpoints="true"
     inkscape:pagecheckerboard="true"><inkscape:grid
       type="xygrid"
       id="grid2985"
       empspacing="4"
       visible="true"
       enabled="true"
       snapvisiblegridlinesonly="true" /></sodipodi:namedview><g
     id="g4142"
     transform="matrix(2,0,0,2,-32,-32)"><path
       id="path975"
       d="m 31.898438,20.945312 c 6.931041,0.125284 13.875822,4.380122 16.330078,10.992188 -2.074006,5.45041 -7.233186,9.253719 -12.773438,10.650391 -1.164922,0.344572 -2.358755,0.514287 -3.55664,0.554687 -1.197885,-0.04039 -2.39172,-0.210117 -3.556641,-0.554687 C 22.801545,41.191219 17.642365,37.38791 15.568359,31.9375 18.022615,25.325434 24.967396,21.070596 31.898438,20.945312 Z"
       style="clip-rule:evenodd;fill:#ecf0f1;fill-opacity:1;fill-rule:evenodd;stroke:#2c3e50;stroke-width:2;stroke-miterlimit:4;stroke-dasharray:none;stroke-opacity:1;image-rendering:optimizeQuality;shape-rendering:geometricPrecision;text-rendering:geometricPrecision"
       transform="matrix(0.5,0,0,0.5,16,16)"
       inkscape:connector-curvature="0"
       sodipodi:nodetypes="ccccccc" /><circle
       style="opacity:1;vector-effect:none;fill:#27ae60;fill-opacity:1;stroke:#2c3e50;stroke-width:3;stroke-linecap:butt;stroke-linejoin:miter;stroke-miterlimit:4;stroke-dasharray:none;stroke-dashoffset:0;stroke-opacity:1;paint-order:stroke fill markers"
       id="path821"
       cx="32"
       cy="32"
       r="4.1161165" /><path
       style="clip-rule:evenodd;fill:#ecf0f1;fill-opacity:1;fill-rule:evenodd;stroke:#2c3e50;stroke-width:2;stroke-miterlimit:4;stroke-dasharray:none;stroke-opacity:1;image-rendering:optimizeQuality;shape-rendering:geometricPrecision;text-rendering:geometricPrecision"
       d="M 31.554688 19.251953 C 23.618399 19.247353 15.771292 25.06123 14.246094 33 C 17.538274 39.626279 24.531913 44.202255 31.898438 44.679688 C 39.264963 44.202256 46.258601 39.626278 49.550781 33 C 48.025583 25.06123 40.178477 19.247353 32.242188 19.251953 C 32.12752 19.251953 32.013118 19.266931 31.898438 19.269531 C 31.783751 19.267024 31.669356 19.25202 31.554688 19.251953 z M 31.898438 20.945312 C 38.829479 21.070596 45.77426 25.325434 48.228516 31.9375 C 46.15451 37.38791 40.99533 41.191219 35.455078 42.587891 C 34.290156 42.932463 33.096323 43.102178 31.898438 43.142578 C 30.700553 43.102187 29.506718 42.932461 28.341797 42.587891 C 22.801545 41.191219 17.642365 37.38791 15.568359 31.9375 C 18.022615 25.325434 24.967396 21.070596 31.898438 20.945312 z "
       id="path4533"
       transform="matrix(0.5,0,0,0.5,16,16)" /><ellipse
       class="fil1"
       cx="32.024525"
       cy="31.968323"
       id="circle4537"
       style="clip-rule:evenodd;fill:#2c3e50;fill-rule:evenodd;stroke-width:0.5;image-rendering:optimizeQuality;shape-rendering:geometricPrecision;text-rendering:geometricPrecision;fill-opacity:1"
       inkscape:export-filename="E:\Emulador\theme\png\core-shader-options.png"
       inkscape:export-xdpi="96"
       inkscape:export-ydpi="96"
       rx="1.9618752"
       ry="1.9379054" /></g></svg>

<svg xmlns="http://www.w3.org/2000/svg" xml:space="preserve" width="64" height="64"><g transform="matrix(2 0 0 2 -32 -32)"><path d="M31.898 20.945c6.931.126 13.876 4.38 16.33 10.993-2.073 5.45-7.233 9.253-12.773 10.65a14.2 14.2 0 0 1-3.557.555 14.2 14.2 0 0 1-3.556-.555c-5.54-1.397-10.7-5.2-12.774-10.65 2.455-6.613 9.4-10.867 16.33-10.993Z" style="clip-rule:evenodd;fill:#ecf0f1;fill-opacity:1;fill-rule:evenodd;stroke:#2c3e50;stroke-width:2;stroke-miterlimit:4;stroke-dasharray:none;stroke-opacity:1;image-rendering:optimizeQuality;shape-rendering:geometricPrecision;text-rendering:geometricPrecision" transform="matrix(.5 0 0 .5 16 16)"/><circle cx="32" cy="32" r="4.116" style="opacity:1;vector-effect:none;fill:#27ae60;fill-opacity:1;stroke:#2c3e50;stroke-width:3;stroke-linecap:butt;stroke-linejoin:miter;stroke-miterlimit:4;stroke-dasharray:none;stroke-dashoffset:0;stroke-opacity:1;paint-order:stroke fill markers"/><path d="M31.555 19.252C23.618 19.247 15.77 25.062 14.246 33c3.292 6.626 10.286 11.202 17.652 11.68 7.367-.478 14.36-5.054 17.653-11.68-1.525-7.939-9.373-13.753-17.309-13.748-.114 0-.229.015-.344.018-.114-.003-.229-.018-.343-.018zm.343 1.693c6.931.126 13.876 4.38 16.33 10.993-2.073 5.45-7.233 9.253-12.773 10.65a14.2 14.2 0 0 1-3.557.555 14.2 14.2 0 0 1-3.556-.555c-5.54-1.397-10.7-5.2-12.774-10.65 2.455-6.613 9.4-10.867 16.33-10.993z" style="clip-rule:evenodd;fill:#ecf0f1;fill-opacity:1;fill-rule:evenodd;stroke:#2c3e50;stroke-width:2;stroke-miterlimit:4;stroke-dasharray:none;stroke-opacity:1;image-rendering:optimizeQuality;shape-rendering:geometricPrecision;text-rendering:geometricPrecision" transform="matrix(.5 0 0 .5 16 16)"/><ellipse cx="32.025" cy="31.968" class="fil1" rx="1.962" ry="1.938" style="clip-rule:evenodd;fill:#2c3e50;fill-rule:evenodd;stroke-width:.5;image-rendering:optimizeQuality;shape-rendering:geometricPrecision;text-rendering:geometricPrecision;fill-opacity:1"/></g></svg>
